svg/logo/alipay_line.svg

<?xml version="1.0" encoding="UTF-8"?>
<svg width="24px" height="24px" viewBox="0 0 24 24" version="1.1" xmlns="http://www.w3.org/2000/svg" xmlns:xlink="http://www.w3.org/1999/xlink">
    <title>alipay_line</title>
    <g id="页面-1" stroke="none" stroke-width="1" fill="none" fill-rule="evenodd">
        <g id="Brand" transform="translate(-48.000000, -0.000000)">
            <g id="alipay_line" transform="translate(48.000000, 0.000000)">
                 <path d="M24,0 L24,24 L0,24 L0,0 L24,0 Z M12.5934901,23.257841 L12.5819402,23.2595131 L12.5108777,23.2950439 L12.4918791,23.2987469 L12.4918791,23.2987469 L12.4767152,23.2950439 L12.4056548,23.2595131 C12.3958229,23.2563662 12.3870493,23.2590235 12.3821421,23.2649074 L12.3780323,23.275831 L12.360941,23.7031097 L12.3658947,23.7234994 L12.3769048,23.7357139 L12.4804777,23.8096931 L12.4953491,23.8136134 L12.4953491,23.8136134 L12.5071152,23.8096931 L12.6106902,23.7357139 L12.6232938,23.7196733 L12.6232938,23.7196733 L12.6266527,23.7031097 L12.609561,23.275831 C12.6075724,23.2657013 12.6010112,23.2592993 12.5934901,23.257841 L12.5934901,23.257841 Z M12.8583906,23.1452862 L12.8445485,23.1473072 L12.6598443,23.2396597 L12.6498822,23.2499052 L12.6498822,23.2499052 L12.6471943,23.2611114 L12.6650943,23.6906389 L12.6699349,23.7034178 L12.6699349,23.7034178 L12.678386,23.7104931 L12.8793402,23.8032389 C12.8914285,23.8068999 12.9022333,23.8029875 12.9078286,23.7952264 L12.9118235,23.7811639 L12.8776777,23.1665331 C12.8752882,23.1545897 12.8674102,23.1470016 12.8583906,23.1452862 L12.8583906,23.1452862 Z M12.1430473,23.1473072 C12.1332178,23.1423925 12.1221763,23.1452606 12.1156365,23.1525954 L12.1099173,23.1665331 L12.0757714,23.7811639 C12.0751323,23.7926639 12.0828099,23.8018602 12.0926481,23.8045676 L12.108256,23.8032389 L12.3092106,23.7104931 L12.3186497,23.7024347 L12.3186497,23.7024347 L12.3225043,23.6906389 L12.340401,23.2611114 L12.337245,23.2485176 L12.337245,23.2485176 L12.3277531,23.2396597 L12.1430473,23.1473072 Z" id="MingCute" fill-rule="nonzero"></path>
                <path d="M20.2253,17.6889 C18.4201,20.2939 15.4093,22 12,22 C6.47715,22 2,17.5228 2,12 C2,6.47715 6.47715,2 12,2 C17.5228,2 22,6.47715 22,12 C22,13.9924 21.4173,15.8487 20.413,17.4079 C20.4122,17.4098 20.4113,17.4118 20.4104,17.4138 C20.363,17.5181 20.2999,17.6103 20.2253,17.6889 Z M4,12 C4,7.58172 7.58172,4 12,4 C16.4183,4 20,7.58172 20,12 C20,13.3397 19.6707,14.6025 19.0886,15.7118 C18.2611,15.3304 17.4964,14.9706 16.7884,14.6375 C16.041,14.2858 15.3568,13.9639 14.7282,13.6774 C15.1373,12.8756 15.5415,11.9371 15.9398,10.8417 C16.0513,10.5352 16.0062,10.1935 15.8191,9.9263 C15.6319,9.65911 15.3262,9.5 15,9.5 L13,9.5 L13,9 L16,9 C16.5523,9 17,8.55228 17,8 C17,7.44772 16.5523,7 16,7 L13,7 L13,6 C13,5.44772 12.5523,5 12,5 C11.4477,5 11,5.44772 11,6 L11,7 L8,7 C7.44772,7 7,7.44772 7,8 C7,8.55228 7.44772,9 8,9 L11,9 L11,9.5 L9,9.5 C8.44771,9.5 8,9.94772 8,10.5 C8,11.0523 8.44771,11.5 9,11.5 L13.5345,11.5 C13.3152,12.0178 13.0989,12.477 12.8869,12.8842 C11.4939,12.3336 10.2676,12 9,12 C7.47994,12 6,13.316 6,15 C6,16.8201 7.63195,18 9.5,18 C10.5201,18 11.648,17.6412 12.7696,16.5196 C13.0809,16.2083 13.3905,15.8397 13.6978,15.4057 C14.3552,15.7026 15.0716,16.0399 15.8763,16.4188 C16.5009,16.7129 17.1788,17.0321 17.9236,17.3769 C16.4601,18.9883 14.3482,20 12,20 C7.58172,20 4,16.4183 4,12 Z M9,14 C9.82654,14 10.6871,14.1943 11.7969,14.608 C11.6454,14.798 11.498,14.9628 11.3554,15.1054 C10.602,15.8588 9.97992,16 9.5,16 C8.36805,16 8,15.3799 8,15 C8,14.484 8.52006,14 9,14 Z" id="形状" fill="#09244B"></path>
            </g>
        </g>
    </g>
</svg>

<svg xmlns="http://www.w3.org/2000/svg" width="24" height="24"><g fill="none" fill-rule="evenodd"><path d="M24 0v24H0V0h24ZM12.593 23.258l-.011.002-.071.035-.02.004-.014-.004-.071-.035c-.01-.004-.019-.001-.024.005l-.004.01-.017.428.005.02.01.013.104.074.015.004.012-.004.104-.074.012-.016.004-.017-.017-.427c-.002-.01-.009-.017-.017-.018Zm.265-.113-.013.002-.185.093-.01.01-.003.011.018.43.005.012.008.007.201.093c.012.004.023 0 .029-.008l.004-.014-.034-.614c-.003-.012-.01-.02-.02-.022Zm-.715.002a.023.023 0 0 0-.027.006l-.006.014-.034.614c0 .012.007.02.017.024l.015-.002.201-.093.01-.008.004-.011.017-.43-.003-.012-.01-.01-.184-.092Z"/><path fill="#09244B" d="M20.225 17.689A9.989 9.989 0 0 1 12 22C6.477 22 2 17.523 2 12S6.477 2 12 2s10 4.477 10 10a9.953 9.953 0 0 1-1.59 5.414 1 1 0 0 1-.185.275ZM4 12a8 8 0 1 1 15.089 3.712c-.828-.382-1.593-.741-2.3-1.075-.748-.351-1.432-.673-2.06-.96.408-.801.813-1.74 1.21-2.835A1 1 0 0 0 15 9.5h-2V9h3a1 1 0 1 0 0-2h-3V6a1 1 0 1 0-2 0v1H8a1 1 0 0 0 0 2h3v.5H9a1 1 0 1 0 0 2h4.534c-.219.518-.435.977-.647 1.384C11.494 12.334 10.267 12 9 12c-1.52 0-3 1.316-3 3 0 1.82 1.632 3 3.5 3 1.02 0 2.148-.359 3.27-1.48.31-.312.62-.68.928-1.114.657.297 1.374.634 2.178 1.013.625.294 1.303.613 2.048.958A8 8 0 0 1 4 12Zm5 2c.827 0 1.687.194 2.797.608-.152.19-.299.355-.442.497C10.602 15.86 9.98 16 9.5 16 8.368 16 8 15.38 8 15c0-.516.52-1 1-1Z"/></g></svg>
